images/indikatorenset/5201.svg

<?xml version="1.0" standalone="no"?><!DOCTYPE svg PUBLIC "-//W3C//DTD SVG 1.1//EN" "http://www.w3.org/Graphics/SVG/1.1/DTD/svg11.dtd"><svg xmlns:xlink="http://www.w3.org/1999/xlink" version="1.1" class="highcharts-root" style="font-family:arial;font-size:12px;" xmlns="http://www.w3.org/2000/svg" width="485" height="415"><desc>Created with Highstock 5.0.14</desc><defs><clipPath id="highcharts-rnydq39-6"><rect x="0" y="0" width="438" height="294" fill="none"></rect></clipPath><clipPath id="highcharts-rnydq39-7"><rect x="0" y="0" width="438" height="294" fill="none"></rect></clipPath></defs><rect fill="#fbfbfb" class="highcharts-background" x="0" y="0" width="485" height="415" rx="0" ry="0"></rect><rect fill="none" class="highcharts-plot-background" x="37" y="55" width="438" height="294"></rect><g class="highcharts-pane-group"></g><g class="highcharts-grid highcharts-xaxis-grid "><path fill="none" class="highcharts-grid-line" d="M 63.5 55 L 63.5 349" opacity="1"></path><path fill="none" class="highcharts-grid-line" d="M 108.5 55 L 108.5 349" opacity="1"></path><path fill="none" class="highcharts-grid-line" d="M 153.5 55 L 153.5 349" opacity="1"></path><path fill="none" class="highcharts-grid-line" d="M 198.5 55 L 198.5 349" opacity="1"></path><path fill="none" class="highcharts-grid-line" d="M 244.5 55 L 244.5 349" opacity="1"></path><path fill="none" class="highcharts-grid-line" d="M 289.5 55 L 289.5 349" opacity="1"></path><path fill="none" class="highcharts-grid-line" d="M 334.5 55 L 334.5 349" opacity="1"></path><path fill="none" class="highcharts-grid-line" d="M 379.5 55 L 379.5 349" opacity="1"></path><path fill="none" class="highcharts-grid-line" d="M 425.5 55 L 425.5 349" opacity="1"></path><path fill="none" class="highcharts-grid-line" d="M 470.5 55 L 470.5 349" opacity="1"></path></g><g class="highcharts-grid highcharts-yaxis-grid "><path fill="none" stroke="#B9CFD7" stroke-width="0.5" class="highcharts-grid-line" d="M 37 349.25 L 475 349.25" opacity="1"></path><path fill="none" stroke="#B9CFD7" stroke-width="0.5" class="highcharts-grid-line" d="M 37 300.25 L 475 300.25" opacity="1"></path><path fill="none" stroke="#B9CFD7" stroke-width="0.5" class="highcharts-grid-line" d="M 37 251.25 L 475 251.25" opacity="1"></path><path fill="none" stroke="#B9CFD7" stroke-width="0.5" class="highcharts-grid-line" d="M 37 202.25 L 475 202.25" opacity="1"></path><path fill="none" stroke="#B9CFD7" stroke-width="0.5" class="highcharts-grid-line" d="M 37 153.25 L 475 153.25" opacity="1"></path><path fill="none" stroke="#B9CFD7" stroke-width="0.5" class="highcharts-grid-line" d="M 37 104.25 L 475 104.25" opacity="1"></path><path fill="none" stroke="#B9CFD7" stroke-width="0.5" class="highcharts-grid-line" d="M 37 54.75 L 475 54.75" opacity="1"></path></g><rect fill="none" class="highcharts-plot-border" x="37" y="55" width="438" height="294"></rect><g class="highcharts-axis highcharts-xaxis "><path fill="none" class="highcharts-axis-line" stroke="#B9CFD7" stroke-width="0.5" d="M 37 349.25 L 475 349.25"></path></g><g class="highcharts-axis highcharts-yaxis "><path fill="none" class="highcharts-axis-line" d="M 37 55 L 37 349"></path></g><g class="highcharts-series-group"><g class="highcharts-series highcharts-series-0 highcharts-line-series highcharts-color-undefined " transform="translate(37,55) scale(1 1)" clip-path="url(#highcharts-rnydq39-7)"><path fill="none" d="M 4.29411764706 36.44740525299994 L 26.894736842106 39.27414219399998 L 49.495356037153 41.89934821099999 L 72.095975232199 43.967692306999965 L 94.696594427245 45.455309031999974 L 117.29721362229 44.71812995299999 L 139.89783281734 44.455609365999976 L 162.49845201238 44.105581883999974 L 185.09907120743 44.84408680499999 L 207.69969040248 45.01379707999996 L 230.30030959752 44.738017877000004 L 252.90092879257 42.67497724699999 L 275.50154798762 41.005717472999976 L 298.10216718266 41.026931238999964 L 320.70278637771 39.33380596599997 L 343.30340557275 37.500139382999976 L 365.9040247678 34.84841618299998 L 388.50464396285 33.506644233999964 L 411.10526315789 32.53478764199997 L 433.70588235294 31.20627430899998" class="highcharts-graph" stroke="#8b2223" stroke-width="2" stroke-linejoin="round" stroke-linecap="round"></path></g><g class="highcharts-markers highcharts-series-0 highcharts-line-series highcharts-color-undefined " transform="translate(37,55) scale(1 1)" clip-path="none"><path fill="#8b2223" d="M 8 36 A 4 4 0 1 1 7.999998000000167 35.99600000066666 Z" class="highcharts-point"></path><path fill="#8b2223" d="M 30 39 A 4 4 0 1 1 29.99999800000017 38.99600000066666 Z" class="highcharts-point"></path><path fill="#8b2223" d="M 53 42 A 4 4 0 1 1 52.99999800000017 41.99600000066666 Z" class="highcharts-point"></path><path fill="#8b2223" d="M 76 44 A 4 4 0 1 1 75.99999800000016 43.99600000066666 Z" class="highcharts-point"></path><path fill="#8b2223" d="M 98 45 A 4 4 0 1 1 97.99999800000016 44.99600000066666 Z" class="highcharts-point"></path><path fill="#8b2223" d="M 121 45 A 4 4 0 1 1 120.99999800000016 44.99600000066666 Z" class="highcharts-point"></path><path fill="#8b2223" d="M 143 44 A 4 4 0 1 1 142.99999800000018 43.99600000066666 Z" class="highcharts-point"></path><path fill="#8b2223" d="M 166 44 A 4 4 0 1 1 165.99999800000018 43.99600000066666 Z" class="highcharts-point"></path><path fill="#8b2223" d="M 189 45 A 4 4 0 1 1 188.99999800000018 44.99600000066666 Z" class="highcharts-point"></path><path fill="#8b2223" d="M 211 45 A 4 4 0 1 1 210.99999800000018 44.99600000066666 Z" class="highcharts-point"></path><path fill="#8b2223" d="M 234 45 A 4 4 0 1 1 233.99999800000018 44.99600000066666 Z" class="highcharts-point"></path><path fill="#8b2223" d="M 256 43 A 4 4 0 1 1 255.99999800000018 42.99600000066666 Z" class="highcharts-point"></path><path fill="#8b2223" d="M 279 41 A 4 4 0 1 1 278.9999980000002 40.99600000066666 Z" class="highcharts-point"></path><path fill="#8b2223" d="M 302 41 A 4 4 0 1 1 301.9999980000002 40.99600000066666 Z" class="highcharts-point"></path><path fill="#8b2223" d="M 324 39 A 4 4 0 1 1 323.9999980000002 38.99600000066666 Z" class="highcharts-point"></path><path fill="#8b2223" d="M 347 38 A 4 4 0 1 1 346.9999980000002 37.99600000066666 Z" class="highcharts-point"></path><path fill="#8b2223" d="M 369 35 A 4 4 0 1 1 368.9999980000002 34.99600000066666 Z" class="highcharts-point"></path><path fill="#8b2223" d="M 392 34 A 4 4 0 1 1 391.9999980000002 33.99600000066666 Z" class="highcharts-point"></path><path fill="#8b2223" d="M 415 33 A 4 4 0 1 1 414.9999980000002 32.99600000066666 Z" class="highcharts-point"></path><path fill="#8b2223" d="M 437 31 A 4 4 0 1 1 436.9999980000002 30.996000000666665 Z" class="highcharts-point"></path></g></g><text x="10" text-anchor="start" class="highcharts-title" style="color:#000000;font-size:14px;font-weight:bold;fill:#000000;" y="21"><tspan>Bevölkerungsdichte</tspan></text><text x="10" text-anchor="start" class="highcharts-subtitle" style="color:#000000;font-size:12px;font-weight:normal;font-family:arial;fill:#000000;" y="40"><tspan>Anzahl Einwohner pro Hektar</tspan></text><g class="highcharts-data-labels highcharts-series-0 highcharts-line-series highcharts-color-undefined " visibility="visible" transform="translate(37,55) scale(1 1)"><g class="highcharts-label highcharts-data-label highcharts-data-label-color-undefined " transform="translate(-5,43)"><text x="5" style="font-size:11px;font-weight:bold;color:#000000;fill:#000000;" y="16"><tspan x="5" y="16" class="highcharts-text-outline" fill="#FFFFFF" stroke="#FFFFFF" stroke-width="2px" stroke-linejoin="round" style="">52,6</tspan><tspan x="5" y="16">52,6</tspan></text></g><g class="highcharts-label highcharts-data-label highcharts-data-label-color-undefined " transform="translate(22,59)"><text x="5" style="font-size:11px;font-weight:bold;color:#000000;fill:#000000;" y="16"></text></g><g class="highcharts-label highcharts-data-label highcharts-data-label-color-undefined " transform="translate(44,62)"><text x="5" style="font-size:11px;font-weight:bold;color:#000000;fill:#000000;" y="16"></text></g><g class="highcharts-label highcharts-data-label highcharts-data-label-color-undefined " transform="translate(67,64)"><text x="5" style="font-size:11px;font-weight:bold;color:#000000;fill:#000000;" y="16"></text></g><g class="highcharts-label highcharts-data-label highcharts-data-label-color-undefined " transform="translate(90,65)"><text x="5" style="font-size:11px;font-weight:bold;color:#000000;fill:#000000;" y="16"></text></g><g class="highcharts-label highcharts-data-label highcharts-data-label-color-undefined " transform="translate(112,65)"><text x="5" style="font-size:11px;font-weight:bold;color:#000000;fill:#000000;" y="16"></text></g><g class="highcharts-label highcharts-data-label highcharts-data-label-color-undefined " transform="translate(135,64)"><text x="5" style="font-size:11px;font-weight:bold;color:#000000;fill:#000000;" y="16"></text></g><g class="highcharts-label highcharts-data-label highcharts-data-label-color-undefined " transform="translate(157,64)"><text x="5" style="font-size:11px;font-weight:bold;color:#000000;fill:#000000;" y="16"></text></g><g class="highcharts-label highcharts-data-label highcharts-data-label-color-undefined " transform="translate(180,65)"><text x="5" style="font-size:11px;font-weight:bold;color:#000000;fill:#000000;" y="16"></text></g><g class="highcharts-label highcharts-data-label highcharts-data-label-color-undefined " transform="translate(203,65)"><text x="5" style="font-size:11px;font-weight:bold;color:#000000;fill:#000000;" y="16"></text></g><g class="highcharts-label highcharts-data-label highcharts-data-label-color-undefined " transform="translate(225,65)"><text x="5" style="font-size:11px;font-weight:bold;color:#000000;fill:#000000;" y="16"></text></g><g class="highcharts-label highcharts-data-label highcharts-data-label-color-undefined " transform="translate(248,63)"><text x="5" style="font-size:11px;font-weight:bold;color:#000000;fill:#000000;" y="16"></text></g><g class="highcharts-label highcharts-data-label highcharts-data-label-color-undefined " transform="translate(271,61)"><text x="5" style="font-size:11px;font-weight:bold;color:#000000;fill:#000000;" y="16"></text></g><g class="highcharts-label highcharts-data-label highcharts-data-label-color-undefined " transform="translate(293,61)"><text x="5" style="font-size:11px;font-weight:bold;color:#000000;fill:#000000;" y="16"></text></g><g class="highcharts-label highcharts-data-label highcharts-data-label-color-undefined " transform="translate(316,59)"><text x="5" style="font-size:11px;font-weight:bold;color:#000000;fill:#000000;" y="16"></text></g><g class="highcharts-label highcharts-data-label highcharts-data-label-color-undefined " transform="translate(338,58)"><text x="5" style="font-size:11px;font-weight:bold;color:#000000;fill:#000000;" y="16"></text></g><g class="highcharts-label highcharts-data-label highcharts-data-label-color-undefined " transform="translate(361,55)"><text x="5" style="font-size:11px;font-weight:bold;color:#000000;fill:#000000;" y="16"></text></g><g class="highcharts-label highcharts-data-label highcharts-data-label-color-undefined " transform="translate(384,54)"><text x="5" style="font-size:11px;font-weight:bold;color:#000000;fill:#000000;" y="16"></text></g><g class="highcharts-label highcharts-data-label highcharts-data-label-color-undefined " transform="translate(406,53)"><text x="5" style="font-size:11px;font-weight:bold;color:#000000;fill:#000000;" y="16"></text></g><g class="highcharts-label highcharts-data-label highcharts-data-label-color-undefined " transform="translate(412,38)"><text x="5" style="font-size:11px;font-weight:bold;color:#000000;fill:#000000;" y="16"><tspan x="5" y="16" class="highcharts-text-outline" fill="#FFFFFF" stroke="#FFFFFF" stroke-width="2px" stroke-linejoin="round">53,6</tspan><tspan x="5" y="16">53,6</tspan></text></g></g><g class="highcharts-axis-labels highcharts-xaxis-labels "><text x="63.89473684210635" style="color:#000000;cursor:default;font-size:11px;fill:#000000;" text-anchor="middle" transform="translate(0,0)" y="368" opacity="1">1998</text><text x="109.09597523219897" style="color:#000000;cursor:default;font-size:11px;fill:#000000;" text-anchor="middle" transform="translate(0,0)" y="368" opacity="1">2000</text><text x="154.2972136222916" style="color:#000000;cursor:default;font-size:11px;fill:#000000;" text-anchor="middle" transform="translate(0,0)" y="368" opacity="1">2002</text><text x="199.49845201238423" style="color:#000000;cursor:default;font-size:11px;fill:#000000;" text-anchor="middle" transform="translate(0,0)" y="368" opacity="1">2004</text><text x="244.69969040247685" style="color:#000000;cursor:default;font-size:11px;fill:#000000;" text-anchor="middle" transform="translate(0,0)" y="368" opacity="1">2006</text><text x="289.9009287925695" style="color:#000000;cursor:default;font-size:11px;fill:#000000;" text-anchor="middle" transform="translate(0,0)" y="368" opacity="1">2008</text><text x="335.10216718266213" style="color:#000000;cursor:default;font-size:11px;fill:#000000;" text-anchor="middle" transform="translate(0,0)" y="368" opacity="1">2010</text><text x="380.30340557275474" style="color:#000000;cursor:default;font-size:11px;fill:#000000;" text-anchor="middle" transform="translate(0,0)" y="368" opacity="1">2012</text><text x="425.50464396284735" style="color:#000000;cursor:default;font-size:11px;fill:#000000;" text-anchor="middle" transform="translate(0,0)" y="368" opacity="1">2014</text><text x="462.78125" style="color:#000000;cursor:default;font-size:11px;fill:#000000;" text-anchor="middle" transform="translate(0,0)" y="368" opacity="1">2016</text></g><g class="highcharts-axis-labels highcharts-yaxis-labels "><text x="22" style="color:#000000;cursor:default;font-size:11px;fill:#000000;" text-anchor="end" transform="translate(0,0)" y="354" opacity="1"><tspan>0</tspan></text><text x="22" style="color:#000000;cursor:default;font-size:11px;fill:#000000;" text-anchor="end" transform="translate(0,0)" y="305" opacity="1"><tspan>10</tspan></text><text x="22" style="color:#000000;cursor:default;font-size:11px;fill:#000000;" text-anchor="end" transform="translate(0,0)" y="256" opacity="1"><tspan>20</tspan></text><text x="22" style="color:#000000;cursor:default;font-size:11px;fill:#000000;" text-anchor="end" transform="translate(0,0)" y="207" opacity="1"><tspan>30</tspan></text><text x="22" style="color:#000000;cursor:default;font-size:11px;fill:#000000;" text-anchor="end" transform="translate(0,0)" y="158" opacity="1"><tspan>40</tspan></text><text x="22" style="color:#000000;cursor:default;font-size:11px;fill:#000000;" text-anchor="end" transform="translate(0,0)" y="108" opacity="1"><tspan>50</tspan></text><text x="22" style="color:#000000;cursor:default;font-size:11px;fill:#000000;" text-anchor="end" transform="translate(0,0)" y="60" opacity="1"><tspan>60</tspan></text></g><text x="10" class="highcharts-credits" text-anchor="start" style="cursor:default;color:#000000;font-size:10px;fill:#000000;" y="400"><tspan>Quelle: Statistisches Amt Basel-Stadt, Bevölkerungsstatistik</tspan></text></svg>

<svg class="highcharts-root" xmlns="http://www.w3.org/2000/svg" width="485" height="415" font-family="arial" font-size="12">
    <defs>
        <clipPath id="a">
            <path fill="none" d="M0 0h438v294H0z"/>
        </clipPath>
    </defs>
    <rect fill="#fbfbfb" class="highcharts-background" width="485" height="415" rx="0" ry="0"/>
    <path fill="none" class="highcharts-plot-background" d="M37 55h438v294H37z"/>
    <g class="highcharts-grid highcharts-xaxis-grid">
        <path fill="none" class="highcharts-grid-line" d="M63.5 55v294m45-294v294m45-294v294m45-294v294m46-294v294m45-294v294m45-294v294m45-294v294m46-294v294m45-294v294"/>
    </g>
    <g class="highcharts-grid highcharts-yaxis-grid">
        <path fill="none" stroke="#B9CFD7" stroke-width=".5" class="highcharts-grid-line" d="M37 349.25h438m-438-49h438m-438-49h438m-438-49h438m-438-49h438m-438-49h438M37 54.75h438"/>
    </g>
    <path fill="none" class="highcharts-plot-border" d="M37 55h438v294H37z"/>
    <g class="highcharts-axis highcharts-xaxis">
        <path fill="none" class="highcharts-axis-line" stroke="#B9CFD7" stroke-width=".5" d="M37 349.25h438"/>
    </g>
    <g class="highcharts-axis highcharts-yaxis">
        <path fill="none" class="highcharts-axis-line" d="M37 55v294"/>
    </g>
    <g class="highcharts-series-group">
        <g class="highcharts-series highcharts-series-0 highcharts-line-series highcharts-color-undefined" transform="translate(37 55)" clip-path="url(#a)">
            <path fill="none" d="M4.294 36.447l22.6 2.827L49.496 41.9l22.601 2.069 22.6 1.487 22.601-.737 22.6-.262 22.601-.35 22.601.738 22.6.17 22.601-.276 22.6-2.063 22.602-1.67 22.6.022 22.6-1.693 22.601-1.834 22.601-2.652 22.6-1.341 22.601-.972 22.6-1.329" class="highcharts-graph" stroke="#8b2223" stroke-width="2" stroke-linejoin="round" stroke-linecap="round"/>
        </g>
        <g class="highcharts-markers highcharts-series-0 highcharts-line-series highcharts-color-undefined">
            <path fill="#8b2223" d="M45 91a4 4 0 1 1 0-.004zm22 3a4 4 0 1 1 0-.004zm23 3a4 4 0 1 1 0-.004zm23 2a4 4 0 1 1 0-.004zm22 1a4 4 0 1 1 0-.004zm23 0a4 4 0 1 1 0-.004zm22-1a4 4 0 1 1 0-.004zm23 0a4 4 0 1 1 0-.004zm23 1a4 4 0 1 1 0-.004zm22 0a4 4 0 1 1 0-.004zm23 0a4 4 0 1 1 0-.004zm22-2a4 4 0 1 1 0-.004zm23-2a4 4 0 1 1 0-.004zm23 0a4 4 0 1 1 0-.004zm22-2a4 4 0 1 1 0-.004zm23-1a4 4 0 1 1 0-.004zm22-3a4 4 0 1 1 0-.004zm23-1a4 4 0 1 1 0-.004zm23-1a4 4 0 1 1 0-.004zm22-2a4 4 0 1 1 0-.004z" class="highcharts-point"/>
        </g>
    </g>
    <text x="10" class="highcharts-title" y="21" color="#000" font-size="14" font-weight="700">
        <tspan>Bevölkerungsdichte</tspan>
    </text>
    <text x="10" class="highcharts-subtitle" y="40" color="#000" font-weight="400">
        <tspan>Anzahl Einwohner pro Hektar</tspan>
    </text>
    <g class="highcharts-data-labels highcharts-series-0 highcharts-line-series highcharts-color-undefined">
        <text x="5" y="16" font-size="11" font-weight="700" color="#000" transform="translate(32 98)" class="highcharts-label highcharts-data-label highcharts-data-label-color-undefined">
            <tspan x="5" y="16" class="highcharts-text-outline" fill="#FFF" stroke="#FFF" stroke-width="2" stroke-linejoin="round">52,6</tspan><tspan x="5" y="16">52,6</tspan>
        </text>
        <text x="5" y="16" font-size="11" font-weight="700" color="#000" transform="translate(449 93)" class="highcharts-label highcharts-data-label highcharts-data-label-color-undefined">
            <tspan x="5" y="16" class="highcharts-text-outline" fill="#FFF" stroke="#FFF" stroke-width="2" stroke-linejoin="round">53,6</tspan><tspan x="5" y="16">53,6</tspan>
        </text>
    </g>
    <g class="highcharts-axis-labels highcharts-xaxis-labels" text-anchor="middle" color="#000" cursor="default" font-size="11">
        <text x="63.895" y="368">
            1998
        </text>
        <text x="109.096" y="368">
            2000
        </text>
        <text x="154.297" y="368">
            2002
        </text>
        <text x="199.498" y="368">
            2004
        </text>
        <text x="244.7" y="368">
            2006
        </text>
        <text x="289.901" y="368">
            2008
        </text>
        <text x="335.102" y="368">
            2010
        </text>
        <text x="380.303" y="368">
            2012
        </text>
        <text x="425.505" y="368">
            2014
        </text>
        <text x="462.781" y="368">
            2016
        </text>
    </g>
    <g class="highcharts-axis-labels highcharts-yaxis-labels" text-anchor="end" color="#000" cursor="default" font-size="11">
        <text x="22" y="354">
            <tspan>0</tspan>
        </text>
        <text x="22" y="305">
            <tspan>10</tspan>
        </text>
        <text x="22" y="256">
            <tspan>20</tspan>
        </text>
        <text x="22" y="207">
            <tspan>30</tspan>
        </text>
        <text x="22" y="158">
            <tspan>40</tspan>
        </text>
        <text x="22" y="108">
            <tspan>50</tspan>
        </text>
        <text x="22" y="60">
            <tspan>60</tspan>
        </text>
    </g>
    <text x="10" class="highcharts-credits" y="400" cursor="default" color="#000" font-size="10">
        <tspan>Quelle: Statistisches Amt Basel-Stadt, Bevölkerungsstatistik</tspan>
    </text>
</svg>
